public/images/map/flower.svg

<svg width="112" height="106" viewBox="0 0 112 106" fill="none" xmlns="http://www.w3.org/2000/svg">
<path d="M59.7509 93.3177L62 84L62.7722 86.0591C63.2567 87.3512 63.8365 88.6057 64.5067 89.812C65.4992 91.5986 66.6851 93.2707 68.0429 94.7982L70 97L71.8822 98.8822C73.6161 100.616 75.6181 102.059 77.8112 103.156C78.9352 103.718 80.1036 104.186 81.3046 104.555L83.4883 105.227C85.1461 105.737 86.889 105.911 88.6149 105.739C90.1917 105.581 91.7265 105.137 93.1439 104.428L93.4813 104.259C95.146 103.427 96.6422 102.294 97.8942 100.916L98.9065 99.8028C100.276 98.296 101.211 96.4452 101.61 94.4483C101.868 93.1594 101.898 91.8353 101.698 90.5362L101.518 89.3662C101.176 87.142 100.418 85.002 99.2839 83.0581L99.1184 82.7744C98.0466 80.937 96.6836 79.2857 95.0828 77.8849L94.7722 77.6132C93.9253 76.8721 93.0232 76.1966 92.0738 75.5924L90.8356 74.8045C88.9483 73.6035 86.9668 72.5572 84.9107 71.676L84.5 71.5L81.5 70L76.246 67.6118C76.2187 67.5994 76.2331 67.5583 76.2622 67.5655C77.4192 67.8548 78.5957 68.0596 79.7824 68.1782L83 68.5H86.019C87.6696 68.5 89.317 68.3515 90.941 68.0562C92.9739 67.6866 94.9586 67.0892 96.8577 66.2753L97.6254 65.9463C99.8649 64.9865 101.964 63.7285 103.867 62.2064L104.581 61.6351C105.525 60.8803 106.39 60.0323 107.163 59.1041C108.051 58.0383 108.813 56.8733 109.434 55.6324L110.237 54.0255C111.068 52.3647 111.5 50.5333 111.5 48.6764V47.9006C111.5 46.3275 111.089 44.7816 110.309 43.4157C109.774 42.4795 109.076 41.6465 108.247 40.9562L107.842 40.6181C106.952 39.8766 105.959 39.2682 104.895 38.812L104.241 38.5316C103.415 38.1778 102.562 37.8905 101.691 37.6727L101.423 37.6057C99.8137 37.2034 98.1612 37 96.5025 37H96.0926C94.3694 37 92.6513 37.1886 90.9692 37.5624L89 38C85.005 39.3317 81.1096 40.9452 77.3431 42.8284L77 43L72.5 45.5L75.5 42L79.5 37.5L82.5 33L84.0916 29.8169C84.6964 28.6072 85.2147 27.356 85.6424 26.0729C86.2128 24.3615 86.62 22.5999 86.8584 20.8117L87.1795 18.404C87.3924 16.8073 87.4101 15.1906 87.2322 13.5896L87.1807 13.1262C87.0606 12.0451 86.8266 10.9797 86.4826 9.94779L86.4009 9.70269C85.8063 7.91877 84.8623 6.27115 83.624 4.85599L83.5743 4.79918C82.5326 3.60869 81.293 2.60721 79.9102 1.83898L79.7324 1.74021C78.2588 0.921577 76.6372 0.404137 74.9619 0.217986C73.6618 0.0735275 72.3471 0.130578 71.0644 0.387124L70.8727 0.425459C68.9782 0.804367 67.1828 1.57205 65.6 2.68001L65.2851 2.90041C63.7734 3.95863 62.4586 5.27339 61.4004 6.78512L60.6769 7.81878C59.8938 8.93736 59.2122 10.1236 58.64 11.3633L58.2072 12.3011C57.073 14.7585 56.2318 17.3408 55.701 19.9948L55 23.5L54.5 30.5V36.5C53.8345 32.8399 52.8609 29.2425 51.5896 25.7464L51.5 25.5L49.5 20.5L47 15L45.6538 12.8461C44.8871 11.6193 43.9836 10.4836 42.9606 9.46061C42.321 8.82101 41.6368 8.22762 40.9132 7.6849L39.3213 6.49101C38.4422 5.83167 37.5056 5.25279 36.5227 4.76135C35.5097 4.25487 34.452 3.84343 33.3631 3.53231L32.7941 3.36973C31.9331 3.12374 31.0518 2.95518 30.1608 2.86608L29.9789 2.84789C27.6934 2.61934 25.3864 2.94542 23.2538 3.79848C22.0897 4.26413 20.9919 4.88105 19.9889 5.63334L19.5421 5.96845C18.1923 6.98076 17.0413 8.23386 16.1471 9.66459C15.3871 10.8806 14.8229 12.2086 14.4751 13.5998L14.1389 14.9443C13.7146 16.6417 13.5 18.3847 13.5 20.1343C13.5 22.0363 13.7536 23.9298 14.254 25.7647L14.3624 26.162C14.7864 27.7169 15.363 29.226 16.0838 30.6675L17 32.5C18.6613 35.1581 20.619 37.619 22.8354 39.8354L23 40L26.5 43.5L26.6045 43.5896C28.8597 45.5226 31.3434 47.1717 34 48.5H31L26 49L22.6867 49.7646C20.5658 50.254 18.4886 50.9165 16.4759 51.7452L14.0821 52.7309C12.0386 53.5723 10.1307 54.7112 8.42031 56.1107C6.48702 57.6924 4.83162 59.5861 3.52247 61.7135L2.53093 63.3247C1.84715 64.4359 1.32572 65.639 0.982435 66.8977L0.712386 67.8879C0.24598 69.5981 0.245979 71.4019 0.712386 73.1121C1.22604 74.9955 2.28359 76.6856 3.75276 77.9712L3.96801 78.1595C4.98054 79.0455 6.14868 79.7359 7.4131 80.1957L8.33322 80.5303C10.0975 81.1718 11.9603 81.5 13.8376 81.5H15.945C18.9619 81.5 21.9591 81.0136 24.8212 80.0596L26.0894 79.6369C28.3576 78.8808 30.5455 77.9025 32.6214 76.7163L40 72.5C38.0063 74.826 36.2798 77.3683 34.853 80.0793L32.8969 83.7958C32.3003 84.9295 31.8104 86.1162 31.4336 87.3407L30.8325 89.2942C30.285 91.0736 30.1593 92.956 30.4654 94.7924L30.5192 95.1152C30.834 97.0043 31.6462 98.7755 32.8723 100.247C33.2899 100.748 33.7521 101.21 34.2532 101.628L34.5267 101.856C35.8323 102.944 37.3168 103.797 38.914 104.378L39.05 104.427C40.9927 105.134 43.0674 105.403 45.1261 105.216C46.6975 105.073 48.2336 104.667 49.67 104.014L51.6621 103.108C52.5518 102.704 53.3982 102.21 54.1885 101.636C56.9716 99.6115 58.9434 96.6629 59.7509 93.3177Z" fill="#FFACD4"/>
<circle cx="55" cy="52" r="15" fill="#FFE483"/>
</svg>

<svg xmlns="http://www.w3.org/2000/svg" width="112" height="106" fill="none"><path fill="#FFACD4" d="M59.75 93.318 62 84l.772 2.06a27.9 27.9 0 0 0 5.27 8.738L70 97l1.882 1.882a22.8 22.8 0 0 0 9.423 5.673l2.183.672a13.026 13.026 0 0 0 9.656-.799l.337-.169a15 15 0 0 0 4.413-3.343l1.012-1.113a11.24 11.24 0 0 0 2.792-9.267l-.18-1.17a17.9 17.9 0 0 0-2.234-6.308l-.166-.284a19.7 19.7 0 0 0-4.035-4.89l-.31-.27a22 22 0 0 0-2.7-2.022l-1.237-.787a41.5 41.5 0 0 0-5.925-3.129L84.5 71.5l-3-1.5-5.254-2.388c-.027-.013-.013-.054.016-.046 1.157.289 2.334.494 3.52.612L83 68.5h3.019a27.5 27.5 0 0 0 10.839-2.225l.767-.329a27 27 0 0 0 6.242-3.74l.714-.57a18.027 18.027 0 0 0 4.853-6.003l.803-1.607a11.95 11.95 0 0 0 1.263-5.35v-.775a9.05 9.05 0 0 0-3.253-6.945l-.405-.338a12 12 0 0 0-2.947-1.806l-.654-.28a17 17 0 0 0-2.55-.86l-.268-.066a20.3 20.3 0 0 0-4.92-.606h-.41c-1.724 0-3.442.189-5.124.562L89 38a89 89 0 0 0-11.657 4.828L77 43l-4.5 2.5 3-3.5 4-4.5 3-4.5 1.592-3.183a28.6 28.6 0 0 0 2.766-9.005l.322-2.408c.212-1.597.23-3.213.052-4.814l-.051-.464a15.4 15.4 0 0 0-.698-3.178l-.082-.245a14.2 14.2 0 0 0-2.777-4.847l-.05-.057a13.7 13.7 0 0 0-3.664-2.96l-.178-.099A12.7 12.7 0 0 0 71.064.387l-.191.038A14 14 0 0 0 65.6 2.68l-.315.22A15.8 15.8 0 0 0 61.4 6.785l-.723 1.034a23 23 0 0 0-2.037 3.544l-.433.938a34.5 34.5 0 0 0-2.506 7.694L55 23.5l-.5 7v6a66 66 0 0 0-2.91-10.754l-.09-.246-2-5L47 15l-1.346-2.154a19.1 19.1 0 0 0-4.74-5.161L39.32 6.49a18.3 18.3 0 0 0-5.958-2.959l-.569-.162a15 15 0 0 0-2.633-.504l-.182-.018a14.28 14.28 0 0 0-9.99 2.785l-.447.335a13.7 13.7 0 0 0-5.067 7.632l-.336 1.344a21.4 21.4 0 0 0 .115 10.82l.108.398c.424 1.555 1.001 3.064 1.722 4.506L17 32.5a41.4 41.4 0 0 0 5.835 7.335L23 40l3.5 3.5.105.09A36.3 36.3 0 0 0 34 48.5h-3l-5 .5-3.313.765a40 40 0 0 0-6.211 1.98l-2.394.986a22.42 22.42 0 0 0-10.56 8.983l-.991 1.61a13.7 13.7 0 0 0-1.549 3.574l-.27.99a9.93 9.93 0 0 0 3.04 10.083l.216.188a10.9 10.9 0 0 0 3.445 2.037l.92.334c1.765.642 3.627.97 5.505.97h2.107a28 28 0 0 0 8.876-1.44l1.268-.423a36.3 36.3 0 0 0 6.532-2.92L40 72.5a41 41 0 0 0-5.147 7.58l-1.956 3.716a20.7 20.7 0 0 0-1.463 3.545l-.602 1.953a12 12 0 0 0-.367 5.498l.054.323a10.8 10.8 0 0 0 3.734 6.513l.274.228a14.7 14.7 0 0 0 4.387 2.522l.136.049a14.05 14.05 0 0 0 10.62-.413l1.992-.906a14.491 14.491 0 0 0 8.089-9.79"/><circle cx="55" cy="52" r="15" fill="#FFE483"/></svg>
